X:5334
T:Floating Crowbar
R:reel
S:
H:
N:
D:Milltown Session
Z:Adrian Scahill
M:4/4
L:1/8
K:D
ADD2 ADD2|ADD2 ABGF|EGG2 AGG2|E2GE EFGB|\
ADD2 ADD2|ADD2 G2FG|A3B cded|cAGE D4:||\
Addc d2cd|e2ag egg2|A3B AGFG|ABGF EFGB|\
Addc d2cd|e2ag egg2|a2ge dfed|cAGE D4:||

